arkscan/icons/websea.svg

<svg width="200" height="200" viewBox="0 0 200 200" fill="none" xmlns="http://www.w3.org/2000/svg">
<path d="M0.55957 142.91V106.53C35.4476 106.53 70.8954 70.1492 92.5372 70.1492C100.746 70.1492 101.119 75.9328 101.119 81.7163V97.9477C101.119 102.425 101.492 106.204 105.97 106.204C141.806 102.589 177.408 70.1492 199.627 70.1492V106.53C176.097 106.53 137.558 142.91 99.6267 142.91V112.5C99.6267 109.142 97.5745 106.53 92.5372 106.53C70.8954 106.53 35.4476 142.91 0.55957 142.91Z" fill="#88B336"/>
<circle cx="16.9775" cy="73.3208" r="16.6045" fill="#88B336"/>
</svg>

<svg width="200" height="200" fill="none" xmlns="http://www.w3.org/2000/svg"><path d="M.56 142.91v-36.38c34.888 0 70.335-36.38 91.977-36.38 8.209 0 8.582 5.783 8.582 11.566v16.232c0 4.477.373 8.256 4.851 8.256 35.836-3.615 71.438-36.055 93.657-36.055v36.381c-23.53 0-62.069 36.38-100 36.38V112.5c0-3.358-2.052-5.97-7.09-5.97-21.642 0-57.09 36.38-91.977 36.38Z" fill="#88B336"/><circle cx="16.977" cy="73.321" r="16.605" fill="#88B336"/></svg>
